X:26
T: Túl a vizen tótországban
O: Trunk (Bákó), 1951
Q: "Parlando" 1/4=100
L:1/4
K:C
c B A A | cB A A2 H |
c B A F | G A G F2 |
F G G F | G F D (G2 F) |
G A G F | G F D D2 |

